icons/1_Primary/FAX.PLUS.svg

<svg width="1024" height="1024" fill="none" xmlns="http://www.w3.org/2000/svg"><g clip-path="url(#a)"><path d="M512 1024c282.77 0 512-229.23 512-512S794.77 0 512 0 0 229.23 0 512s229.23 512 512 512Z" fill="#9ABEFF"/><path d="M393 690.5h238V750H393v-59.5Zm253.62-177.11-15.62 9H382.59V393.18A118.998 118.998 0 0 0 393 630.7h238a119.044 119.044 0 0 0 100.65-55.548 119.047 119.047 0 0 0 6.75-114.762l-91.78 53ZM393 274v238h238V274H393Zm248.41 119.18v111.2l92.07-53.17a118.912 118.912 0 0 0-92.07-58.03ZM631 641.41H393v38.67h238v-38.67Z" fill="#fff"/></g><defs><clipPath id="a"><path fill="#fff" d="M0 0h1024v1024H0z"/></clipPath></defs></svg>

<svg width="1024" height="1024" viewBox="0 0 1024 1024" fill="none" xmlns="http://www.w3.org/2000/svg">
<g clip-path="url(#clip0_2_2178)">
<path d="M512 1024C794.77 1024 1024 794.77 1024 512C1024 229.23 794.77 0 512 0C229.23 0 0 229.23 0 512C0 794.77 229.23 1024 512 1024Z" fill="#9ABEFF"/>
<path d="M393 690.5H631V750H393V690.5ZM646.62 513.39L631 522.39H382.59V393.18C352.1 395.926 323.842 410.316 303.689 433.36C283.535 456.403 273.038 486.327 274.378 516.911C275.719 547.494 288.794 576.385 310.886 597.577C332.978 618.769 362.387 630.632 393 630.7H631C651.102 630.692 670.875 625.593 688.474 615.88C706.074 606.167 720.928 592.156 731.65 575.152C742.373 558.149 748.615 538.707 749.795 518.64C750.976 498.573 747.055 478.533 738.4 460.39L646.62 513.39ZM393 274V512H631V274H393ZM641.41 393.18V504.38L733.48 451.21C723.86 434.908 710.487 421.138 694.473 411.045C678.459 400.951 660.267 394.827 641.41 393.18ZM631 641.41H393V680.08H631V641.41Z" fill="white"/>
</g>
<defs>
<clipPath id="clip0_2_2178">
<rect width="1024" height="1024" fill="white"/>
</clipPath>
</defs>
</svg>
